packages/polaris-icons-raw/icons/polaris/automation_major_twotone.svg

<?xml version="1.0" encoding="UTF-8"?><svg viewBox="0 0 20 20" xmlns="http://www.w3.org/2000/svg"><path d="M12,0 C12.5521694,0 12.9998369,0.447535308 13,0.999704725 L13.0004672,2.58199921 C13.6906291,2.86140141 14.3374599,3.23603006 14.9229634,3.6936819 L16.2942013,2.90193958 C16.7724959,2.62577593 17.3841055,2.78964589 17.660254,3.26794919 L19.660254,6.73205081 C19.9363959,7.21034258 19.7725219,7.82193187 19.2942308,8.09807496 L17.9234254,8.88951442 C17.9742811,9.25530408 18,9.62610854 18,10 C18,10.3738915 17.9742811,10.7446959 17.9234254,11.1104856 L19.2942308,11.901925 C19.7725219,12.1780681 19.9363959,12.7896574 19.660254,13.2679492 L17.660254,16.7320508 C17.3841055,17.2103541 16.7724959,17.3742241 16.2942013,17.0980604 L14.9229634,16.3063181 C14.3374599,16.7639699 13.6906291,17.1385986 13.0004672,17.4180008 L13,19.0002953 C12.9998369,19.5524647 12.5521694,20 12,20 L8,20 C7.44772315,20 7.00001117,19.5522971 7,19.0000202 L6.999968,17.4181769 C6.30973346,17.1387928 5.66283197,16.7641642 5.07726423,16.306496 L3.70565222,17.098145 C3.22736814,17.3741947 2.61586148,17.2102969 2.33974596,16.7320508 L0.339745962,13.2679492 C0.0635945504,12.7896409 0.227490391,12.1780299 0.705811446,11.9019006 L2.07658608,11.1105681 C2.02572274,10.7447517 2,10.3739196 2,10 C2,9.62608038 2.02572274,9.25524825 2.07658608,8.88943187 L0.705811446,8.09809935 C0.227490391,7.82197008 0.0635945504,7.21035908 0.339745962,6.73205081 L2.33974596,3.26794919 C2.61586148,2.78970309 3.22736814,2.62580529 3.70565222,2.90185501 L5.07726423,3.69350401 C5.56523734,3.31211386 6.09580334,2.98839008 6.65854515,2.72939568 L6.999968,2.58182307 L7,0.999979768 C7.00001117,0.447702919 7.44772315,0 8,0 L12,0 Z M11.0002952,2 L8.99997977,2 L8.99995367,3.2899127 C8.99994472,3.73232105 8.70923683,4.12214396 8.28520998,4.24834374 C7.38401562,4.51655912 6.56025029,4.99473 5.87790914,5.64011788 C5.5566227,5.94400453 5.07388518,6.00077142 4.69086775,5.77970645 L3.57186555,5.13385547 L2.57181991,6.86598532 L3.689072,7.51096218 C4.07184444,7.73193233 4.26415901,8.17797138 4.16206956,8.60799499 C4.05476206,9.05999821 4,9.52603307 4,10 C4,10.4739669 4.05476206,10.9400018 4.16206956,11.392005 C4.26415901,11.8220286 4.07184444,12.2680677 3.689072,12.4890378 L2.57181991,13.1340147 L3.57186555,14.8661445 L4.69086775,14.2202936 C5.07388518,13.9992286 5.5566227,14.0559955 5.87790914,14.3598821 C6.56025029,15.00527 7.38401562,15.4834409 8.28520998,15.7516563 C8.70923683,15.877856 8.99994472,16.2676789 8.99995367,16.7100873 L8.99997977,18 L11.0002952,18 L11.0006762,16.7096248 C11.0008068,16.2673532 11.2914454,15.8776966 11.7153292,15.7514958 C12.6164265,15.4832164 13.4400914,15.0050211 14.122343,14.3596436 C14.4436729,14.0556809 14.92652,13.9989285 15.3095726,14.2201001 L16.428219,14.8659981 L17.4282045,13.1339724 L16.3109127,12.4889 C15.928172,12.2679233 15.7358769,11.8219096 15.8379535,11.3919079 C15.9452458,10.9399349 16,10.4739329 16,10 C16,9.52606708 15.9452458,9.06006506 15.8379535,8.60809214 C15.7358769,8.17809042 15.928172,7.73207674 16.3109127,7.51110004 L17.4282045,6.86602758 L16.428219,5.13400195 L15.3095726,5.77989986 C14.92652,6.00107153 14.4436729,5.94431911 14.122343,5.64035639 C13.4400914,4.99497892 12.6164265,4.51678356 11.7153292,4.24850424 C11.2914454,4.12230337 11.0008068,3.73264679 11.0006762,3.29037524 L11.0002952,2 Z M8,8 C8,7.20130462 8.89014547,6.72491322 9.5547002,7.16794971 L9.5547002,7.16794971 L12.5547002,9.16794971 C13.1484333,9.56377175 13.1484333,10.4362282 12.5547002,10.8320503 L12.5547002,10.8320503 L9.5547002,12.8320503 C8.89014547,13.2750868 8,12.7986954 8,12 L8,12 Z" fill="#637381" fill-rule="nonzero" /></svg>

<svg viewBox="0 0 20 20" xmlns="http://www.w3.org/2000/svg"><path d="M12 0a1 1 0 011 1v1.582c.69.28 1.337.654 1.923 1.112l1.371-.792a1 1 0 011.366.366l2 3.464a1 1 0 01-.366 1.366l-1.37.792a8.062 8.062 0 010 2.22l1.37.792a1 1 0 01.366 1.366l-2 3.464a1 1 0 01-1.366.366l-1.371-.792A7.992 7.992 0 0113 17.418V19a1 1 0 01-1 1H8a1 1 0 01-1-1v-1.582a7.992 7.992 0 01-1.923-1.112l-1.371.792a1 1 0 01-1.366-.366l-2-3.464a1 1 0 01.366-1.366l1.37-.791a8.062 8.062 0 010-2.222L.707 8.1A1 1 0 01.34 6.731l2-3.464a1 1 0 011.366-.366l1.371.792a7.998 7.998 0 011.582-.965L7 2.582V1a1 1 0 011-1h4zm-1 2H9v1.29a1 1 0 01-.715.958A5.992 5.992 0 005.878 5.64a1 1 0 01-1.187.14l-1.12-.646-1 1.732 1.118.645a1 1 0 01.473 1.097 6.02 6.02 0 000 2.784 1 1 0 01-.473 1.097l-1.117.645 1 1.732 1.119-.646a1 1 0 011.187.14 5.992 5.992 0 002.407 1.392A1 1 0 019 16.71V18h2v-1.29a1 1 0 01.715-.959 5.992 5.992 0 002.407-1.391 1 1 0 011.188-.14l1.118.646 1-1.732-1.117-.645a1 1 0 01-.473-1.097 6.02 6.02 0 000-2.784 1 1 0 01.473-1.097l1.117-.645-1-1.732-1.118.646a1 1 0 01-1.188-.14 5.992 5.992 0 00-2.407-1.391 1 1 0 01-.714-.959V2zM8 8a1 1 0 011.555-.832l3 2a1 1 0 010 1.664l-3 2A1 1 0 018 12z" fill="#637381"/></svg>
